svg/device/dashboard_2_line.svg

<?xml version="1.0" encoding="UTF-8"?>
<svg width="24px" height="24px" viewBox="0 0 24 24" version="1.1" xmlns="http://www.w3.org/2000/svg" xmlns:xlink="http://www.w3.org/1999/xlink">
    <title>dashboard_2_line</title>
    <g id="页面-1" stroke="none" stroke-width="1" fill="none" fill-rule="evenodd">
        <g id="Device" transform="translate(-144.000000, -192.000000)" fill-rule="nonzero">
            <g id="dashboard_2_line" transform="translate(144.000000, 192.000000)">
                 <path d="M24,0 L24,24 L0,24 L0,0 L24,0 Z M12.5934901,23.257841 L12.5819402,23.2595131 L12.5108777,23.2950439 L12.4918791,23.2987469 L12.4918791,23.2987469 L12.4767152,23.2950439 L12.4056548,23.2595131 C12.3958229,23.2563662 12.3870493,23.2590235 12.3821421,23.2649074 L12.3780323,23.275831 L12.360941,23.7031097 L12.3658947,23.7234994 L12.3769048,23.7357139 L12.4804777,23.8096931 L12.4953491,23.8136134 L12.4953491,23.8136134 L12.5071152,23.8096931 L12.6106902,23.7357139 L12.6232938,23.7196733 L12.6232938,23.7196733 L12.6266527,23.7031097 L12.609561,23.275831 C12.6075724,23.2657013 12.6010112,23.2592993 12.5934901,23.257841 L12.5934901,23.257841 Z M12.8583906,23.1452862 L12.8445485,23.1473072 L12.6598443,23.2396597 L12.6498822,23.2499052 L12.6498822,23.2499052 L12.6471943,23.2611114 L12.6650943,23.6906389 L12.6699349,23.7034178 L12.6699349,23.7034178 L12.678386,23.7104931 L12.8793402,23.8032389 C12.8914285,23.8068999 12.9022333,23.8029875 12.9078286,23.7952264 L12.9118235,23.7811639 L12.8776777,23.1665331 C12.8752882,23.1545897 12.8674102,23.1470016 12.8583906,23.1452862 L12.8583906,23.1452862 Z M12.1430473,23.1473072 C12.1332178,23.1423925 12.1221763,23.1452606 12.1156365,23.1525954 L12.1099173,23.1665331 L12.0757714,23.7811639 C12.0751323,23.7926639 12.0828099,23.8018602 12.0926481,23.8045676 L12.108256,23.8032389 L12.3092106,23.7104931 L12.3186497,23.7024347 L12.3186497,23.7024347 L12.3225043,23.6906389 L12.340401,23.2611114 L12.337245,23.2485176 L12.337245,23.2485176 L12.3277531,23.2396597 L12.1430473,23.1473072 Z" id="MingCute" fill-rule="nonzero"></path>
                <path d="M12,2 C17.5228,2 22,6.47715 22,12 C22,14.7659 20.8758,17.2711 19.0618,19.0804 C18.6616,19.4795 18.0129,19.4721 17.6216,19.0665 L16.7803,18.1943 C16.3968,17.7968 16.4082,17.1637 16.8057,16.7803 C17.2032,16.3968 17.8363,16.4082 18.2197,16.8057 L18.3182,16.9079 C19.3729,15.5524 20,13.8501 20,12 C20,7.58172 16.4183,4 12,4 C7.58172,4 4,7.58172 4,12 C4,13.8501 4.62711,15.5524 5.68177,16.9079 L5.78027,16.8057 C6.1637,16.4082 6.79677,16.3968 7.19426,16.7803 C7.59175,17.1637 7.60315,17.7968 7.21973,18.1943 L6.3784,19.0665 C5.98705,19.4721 5.33837,19.4794 4.93824,19.0804 C3.12423,17.2711 2,14.7659 2,12 C2,6.47715 6.47715,2 12,2 Z M12,6 C12.5523,6 13,6.44772 13,7 L13,12.2676 C13.5978,12.6134 14,13.2597 14,14 C14,15.1046 13.1046,16 12,16 C10.8954,16 10,15.1046 10,14 C10,13.2597 10.4022,12.6134 11,12.2676 L11,7 C11,6.44772 11.4477,6 12,6 Z" id="形状" fill="#09244B"></path>
            </g>
        </g>
    </g>
</svg>

<svg xmlns="http://www.w3.org/2000/svg" width="24" height="24"><g fill="none" fill-rule="nonzero"><path d="M24 0v24H0V0h24ZM12.593 23.258l-.011.002-.071.035-.02.004-.014-.004-.071-.035c-.01-.004-.019-.001-.024.005l-.004.01-.017.428.005.02.01.013.104.074.015.004.012-.004.104-.074.012-.016.004-.017-.017-.427c-.002-.01-.009-.017-.017-.018Zm.265-.113-.013.002-.185.093-.01.01-.003.011.018.43.005.012.008.007.201.093c.012.004.023 0 .029-.008l.004-.014-.034-.614c-.003-.012-.01-.02-.02-.022Zm-.715.002a.023.023 0 0 0-.027.006l-.006.014-.034.614c0 .012.007.02.017.024l.015-.002.201-.093.01-.008.004-.011.017-.43-.003-.012-.01-.01-.184-.092Z"/><path fill="#09244B" d="M12 2c5.523 0 10 4.477 10 10a9.972 9.972 0 0 1-2.938 7.08c-.4.4-1.05.392-1.44-.013l-.842-.873a1 1 0 1 1 1.44-1.388l.098.102a8 8 0 1 0-12.636 0l.098-.102a1 1 0 1 1 1.44 1.388l-.842.873a1.01 1.01 0 0 1-1.44.013A9.972 9.972 0 0 1 2 12C2 6.477 6.477 2 12 2Zm0 4a1 1 0 0 1 1 1v5.268A2 2 0 0 1 12 16a2 2 0 0 1-1-3.732V7a1 1 0 0 1 1-1Z"/></g></svg>
